public/front/assets/imgs/theme/icons/icon-user.svg

<svg width="25" height="25" viewBox="0 0 25 25" fill="none" xmlns="http://www.w3.org/2000/svg">
<g clip-path="url(#clip0)">
<path d="M21.4443 24.3665H19.4443V19.3235C19.4435 18.5395 19.1317 17.7879 18.5774 17.2335C18.023 16.6791 17.2713 16.3673 16.4873 16.3665H8.40134C7.61733 16.3673 6.86567 16.6791 6.3113 17.2335C5.75693 17.7879 5.44513 18.5395 5.44434 19.3235V24.3665H3.44434V19.3235C3.44592 18.0093 3.96869 16.7494 4.89796 15.8201C5.82723 14.8909 7.08714 14.3681 8.40134 14.3665H16.4873C17.8015 14.3681 19.0614 14.8909 19.9907 15.8201C20.92 16.7494 21.4427 18.0093 21.4443 19.3235V24.3665Z" fill="#253D4E"/>
<path d="M12.4443 12.3665C11.2577 12.3665 10.0976 12.0146 9.11092 11.3553C8.12422 10.696 7.35519 9.75898 6.90106 8.66262C6.44694 7.56626 6.32812 6.35986 6.55963 5.19598C6.79114 4.03209 7.36258 2.96299 8.2017 2.12388C9.04081 1.28476 10.1099 0.713318 11.2738 0.481807C12.4377 0.250296 13.6441 0.369116 14.7404 0.823242C15.8368 1.27737 16.7739 2.0464 17.4332 3.0331C18.0924 4.01979 18.4443 5.17983 18.4443 6.36652C18.4427 7.95733 17.8101 9.48253 16.6852 10.6074C15.5604 11.7323 14.0352 12.3649 12.4443 12.3665ZM12.4443 2.36652C11.6532 2.36652 10.8799 2.60111 10.2221 3.04064C9.56426 3.48017 9.05157 4.10488 8.74882 4.83579C8.44607 5.56669 8.36686 6.37096 8.5212 7.14688C8.67554 7.9228 9.0565 8.63554 9.61591 9.19495C10.1753 9.75436 10.8881 10.1353 11.664 10.2897C12.4399 10.444 13.2442 10.3648 13.9751 10.062C14.706 9.75929 15.3307 9.2466 15.7702 8.5888C16.2097 7.931 16.4443 7.15764 16.4443 6.36652C16.4443 5.30565 16.0229 4.28824 15.2728 3.53809C14.5226 2.78795 13.5052 2.36652 12.4443 2.36652Z" fill="#253D4E"/>
</g>
<defs>
<clipPath id="clip0">
<rect width="24" height="24" fill="white" transform="translate(0.444336 0.366516)"/>
</clipPath>
</defs>
</svg>

<?xml version="1.0" encoding="utf-8"?>
<!-- Generator: Adobe Illustrator 28.1.0, SVG Export Plug-In . SVG Version: 6.00 Build 0)  -->
<svg version="1.1" id="Layer_1" xmlns="http://www.w3.org/2000/svg" xmlns:xlink="http://www.w3.org/1999/xlink" x="0px" y="0px"
	 viewBox="0 0 25 25" style="enable-background:new 0 0 25 25;" xml:space="preserve">
<style type="text/css">
	.st0{clip-path:url(#SVGID_00000160903837223821931470000008554748063769760910_);}
	.st1{fill:#FFFFFF;}
</style>
<g>
	<defs>
		<rect id="SVGID_1_" x="0.4" y="0.4" width="24" height="24"/>
	</defs>
	<clipPath id="SVGID_00000083048371858170609940000000996737605893391005_">
		<use xlink:href="#SVGID_1_"  style="overflow:visible;"/>
	</clipPath>
	<g style="clip-path:url(#SVGID_00000083048371858170609940000000996737605893391005_);">
		<path class="st1" d="M21.4,24.4h-2v-5c0-0.8-0.3-1.5-0.9-2.1c-0.6-0.6-1.3-0.9-2.1-0.9H8.4c-0.8,0-1.5,0.3-2.1,0.9
			c-0.6,0.6-0.9,1.3-0.9,2.1v5h-2v-5c0-1.3,0.5-2.6,1.5-3.5c0.9-0.9,2.2-1.5,3.5-1.5h8.1c1.3,0,2.6,0.5,3.5,1.5
			c0.9,0.9,1.5,2.2,1.5,3.5V24.4z"/>
		<path class="st1" d="M12.4,12.4c-1.2,0-2.3-0.4-3.3-1c-1-0.7-1.8-1.6-2.2-2.7C6.4,7.6,6.3,6.4,6.6,5.2C6.8,4,7.4,3,8.2,2.1
			c0.8-0.8,1.9-1.4,3.1-1.6s2.4-0.1,3.5,0.3c1.1,0.5,2,1.2,2.7,2.2c0.7,1,1,2.1,1,3.3c0,1.6-0.6,3.1-1.8,4.2
			C15.6,11.7,14,12.4,12.4,12.4z M12.4,2.4c-0.8,0-1.6,0.2-2.2,0.7C9.6,3.5,9.1,4.1,8.7,4.8C8.4,5.6,8.4,6.4,8.5,7.1s0.5,1.5,1.1,2
			c0.6,0.6,1.3,0.9,2,1.1c0.8,0.2,1.6,0.1,2.3-0.2c0.7-0.3,1.4-0.8,1.8-1.5s0.7-1.4,0.7-2.2c0-1.1-0.4-2.1-1.2-2.8
			C14.5,2.8,13.5,2.4,12.4,2.4z"/>
	</g>
</g>
</svg>
